X: 1420
T: Push About The Jorum   #2
O: J.O'Neill
R: reel
%S: s:2 b:10(5+5)
B: O'Neill's 1850 #1420
Z: Bob Safranek, rjs@gsp.org
Z: Compacted via repeats and multiple endings [JC]
M: C|
L: 1/8
K: D	% and A
"^A"[|] (dB) !segno! \
| A(D (3FED) CEEG | FDAD BcdB \
| A(D (3FED) CEEG | FGEF D2 :|[K:A]\
"^B"|: (ed \
| (3(cBA)) (eA) fAeA |
| (3(fga) (ec) dcBA |\
[1 (3(cBA) (eA) fAeA | (3(fga) (ec) d2 :|\
[2 dfdB  cecA | Bcde fdB!segno!d |]
